src/assets/skill-development.svg

<svg xmlns="http://www.w3.org/2000/svg" width="40" height="35" viewBox="0 0 40 35">
  <g fill="#030226">
    <path d="M15.6527777 25.4627193C15.502924 25.4627193 15.3519737 25.4111842 15.2288011 25.3062866L10.9904971 21.6973684C10.8442983 21.5727339 10.7602339 21.3907164 10.7602339 21.1984649 10.7602339 21.0065789 10.8446638 20.8245614 10.9904971 20.6999269L15.2288011 17.0910087C15.5040205 16.8563597 15.9173977 16.8896198 16.1520468 17.1648392 16.3863304 17.440424 16.3534357 17.8538012 16.0778509 18.0880848L12.4254386 21.1984649 16.0778509 24.308845C16.3534357 24.5434942 16.3863304 24.9568713 16.1520468 25.2320907 16.0222953 25.3845029 15.8380848 25.4627193 15.6527777 25.4627193zM24.0197369 25.4627193C23.8344298 25.4627193 23.6502193 25.3845029 23.5208333 25.2320907 23.2861842 24.9568713 23.3194444 24.5434942 23.5946638 24.308845L27.247076 21.1984649 23.5946638 18.0880848C23.3194444 17.8538012 23.2861842 17.440424 23.5208333 17.1648392 23.7551169 16.8896198 24.1688597 16.8563597 24.4437135 17.0910087L28.6820175 20.6999269C28.8282163 20.8245614 28.9122807 21.0065789 28.9122807 21.1984649 28.9122807 21.3907164 28.8282163 21.5727339 28.6820175 21.6973684L24.4437135 25.3062866C24.3205409 25.4111842 24.1695906 25.4627193 24.0197369 25.4627193L24.0197369 25.4627193zM18.3358918 28.1695906C18.2909357 28.1695906 18.245614 28.1648392 18.1999269 28.1553362 17.8461258 28.0807748 17.6195176 27.7331872 17.694079 27.379386L20.3355264 14.8380848C20.4100877 14.4842836 20.7573099 14.2576754 21.1114766 14.3322368 21.4652778 14.4067982 21.6918859 14.7540205 21.6173245 15.1081871L18.9758772 27.6494883C18.9108187 27.9579678 18.6388889 28.1695906 18.3358918 28.1695906L18.3358918 28.1695906z"/>
    <path d="M35.2748538,35.002193 L4.39766082,35.002193 C1.97295326,35.002193 0,33.0296052 0,30.6045322 L0,4.39766082 C0,1.97295326 1.97295326,0 4.39766082,0 L35.2748538,0 C37.6995614,0 39.6725146,1.97295326 39.6725146,4.39766082 L39.6725146,30.6045322 C39.6725146,33.0296052 37.6995614,35.002193 35.2748538,35.002193 Z M4.39766082,1.30994152 C2.69517549,1.30994152 1.30994152,2.69517549 1.30994152,4.39766082 L1.30994152,30.6045322 C1.30994152,32.3070175 2.69517549,33.6922515 4.39766082,33.6922515 L35.2748538,33.6922515 C36.9773391,33.6922515 38.3625731,32.3070175 38.3625731,30.6045322 L38.3625731,4.39766082 C38.3625731,2.69517549 36.9773391,1.30994152 35.2748538,1.30994152 L4.39766082,1.30994152 Z"/>
    <path d="M39.0175439 10.4879386L.65497076 10.4879386C.293128608 10.4879386 0 10.1948099 0 9.83296786 0 9.47149118.293128608 9.1779971.65497076 9.1779971L39.0175439 9.1779971C39.379386 9.1779971 39.6725146 9.47149118 39.6725146 9.83296786 39.6725146 10.1948099 39.379386 10.4879386 39.0175439 10.4879386zM11.1907894 7.35380117C10.0482456 7.35380117 9.11805558 6.42361113 9.11805558 5.28106723 9.11805558 4.13815785 10.0482456 3.20833329 11.1907894 3.20833329 12.3336988 3.20833329 13.2635234 4.13815785 13.2635234 5.28106723 13.2635234 6.42361113 12.3336988 7.35380117 11.1907894 7.35380117zM11.1907894 4.51827481C10.7704678 4.51827481 10.4279971 4.86038007 10.4279971 5.28106723 10.4279971 5.70175439 10.7704678 6.04385965 11.1907894 6.04385965 11.6114766 6.04385965 11.9535818 5.70175439 11.9535818 5.28106723 11.9535818 4.86038007 11.6114766 4.51827481 11.1907894 4.51827481zM4.82236837 7.33369881C3.67945909 7.33369881 2.74963453 6.40387425 2.74963453 5.26096487 2.74963453 4.11805558 3.67945909 3.18823102 4.82236837 3.18823102 5.96527775 3.18823102 6.89510232 4.11805558 6.89510232 5.26096487 6.89510232 6.40387425 5.96527775 7.33369881 4.82236837 7.33369881zM4.82236837 4.49817254C4.40204678 4.49817254 4.05957605 4.84064327 4.05957605 5.26096487 4.05957605 5.68165202 4.40204678 6.02375729 4.82236837 6.02375729 5.24305553 6.02375729 5.5851608 5.68165202 5.5851608 5.26096487 5.5851608 4.84064327 5.24305553 4.49817254 4.82236837 4.49817254zM17.5592105 7.37353806C16.4166667 7.37353806 15.4868421 6.4437135 15.4868421 5.30080412 15.4868421 4.15826021 16.4166667 3.22843565 17.5592105 3.22843565 18.7021199 3.22843565 19.6319444 4.15826021 19.6319444 5.30080412 19.6319444 6.4437135 18.7021199 7.37353806 17.5592105 7.37353806zM17.5592105 4.5380117C17.1388889 4.5380117 16.7967836 4.88011696 16.7967836 5.30080412 16.7967836 5.72149127 17.1388889 6.06359654 17.5592105 6.06359654 17.9798976 6.06359654 18.3220029 5.72149127 18.3220029 5.30080412 18.3220029 4.88011696 17.9798976 4.5380117 17.5592105 4.5380117z"/>
  </g>
</svg>

<svg xmlns="http://www.w3.org/2000/svg" width="40" height="35"><g fill="#030226"><path d="M15.653 25.463c-.15 0-.301-.052-.424-.157l-4.239-3.609a.655.655 0 010-.997l4.239-3.609a.655.655 0 11.849.997l-3.653 3.11 3.653 3.11a.655.655 0 01-.425 1.155zm8.367 0a.655.655 0 01-.425-1.154l3.652-3.11-3.652-3.11a.655.655 0 01.849-.998l4.238 3.609a.655.655 0 010 .997l-4.238 3.61a.652.652 0 01-.424.156zm-5.684 2.707a.655.655 0 01-.642-.79l2.642-12.542a.655.655 0 011.281.27L18.976 27.65a.655.655 0 01-.64.52z"/><path d="M35.275 35.002H4.398A4.403 4.403 0 010 30.605V4.398A4.403 4.403 0 014.398 0h30.877a4.403 4.403 0 014.398 4.398v26.207a4.403 4.403 0 01-4.398 4.397zM4.398 1.31A3.091 3.091 0 001.31 4.398v26.207a3.091 3.091 0 003.088 3.087h30.877a3.091 3.091 0 003.088-3.087V4.398a3.091 3.091 0 00-3.088-3.088H4.398z"/><path d="M39.018 10.488H.655a.655.655 0 110-1.31h38.363a.655.655 0 010 1.31zM11.19 7.354A2.076 2.076 0 019.118 5.28c0-1.143.93-2.073 2.073-2.073 1.143 0 2.073.93 2.073 2.073 0 1.143-.93 2.073-2.073 2.073zm0-2.836a.764.764 0 000 1.526.764.764 0 000-1.526zM4.822 7.334A2.075 2.075 0 012.75 5.26c0-1.143.93-2.073 2.072-2.073 1.143 0 2.073.93 2.073 2.073 0 1.143-.93 2.073-2.073 2.073zm0-2.836a.764.764 0 000 1.526.764.764 0 000-1.526zM17.56 7.374A2.075 2.075 0 0115.487 5.3c0-1.143.93-2.073 2.072-2.073 1.143 0 2.073.93 2.073 2.073 0 1.143-.93 2.073-2.073 2.073zm0-2.836a.763.763 0 10.002 1.527.763.763 0 00-.002-1.527z"/></g></svg>
